X:28
T:Buff-Coat. WCD3/1.028
M:6/4
L:1/4
Z:vmp. Peter Dunk 2013 www.village-music-project.org.uk
B:Walsh, Compleat Country Dancing Master, 3rd Series, 1st Book, 4th Ed., 1754
Q:3/4=90
K:D
d3F3|E3c2 B/c/|d2AF2E|FD3-D2||d|d3/e/d B3/c/d|e3/d/e c3/B/A|
d2d e3/f/g|d3a3|f3/e/f B3/ c/d|e3/d/e c3/B/A|d2A F2E|FD2-D2|]

